contributed-vectors/actor_detector.svg

<?xml version="1.0" encoding="UTF-8" standalone="no"?>
<svg
   xmlns:dc="http://purl.org/dc/elements/1.1/"
   xmlns:cc="http://creativecommons.org/ns#"
   xmlns:rdf="http://www.w3.org/1999/02/22-rdf-syntax-ns#"
   xmlns:svg="http://www.w3.org/2000/svg"
   xmlns="http://www.w3.org/2000/svg"
   xmlns:sodipodi="http://sodipodi.sourceforge.net/DTD/sodipodi-0.dtd"
   xmlns:inkscape="http://www.inkscape.org/namespaces/inkscape"
   width="100%"
   height="100%"
   viewBox="0 0 192 192"
   version="1.1"
   xml:space="preserve"
   style="fill-rule:evenodd;clip-rule:evenodd;stroke-linecap:round;stroke-linejoin:round;stroke-miterlimit:1.5;"
   id="svg21"
   sodipodi:docname="actor_detector.svg"
   inkscape:version="1.0.1 (3bc2e813f5, 2020-09-07)"
   inkscape:export-filename="/home/jphilippe/github/delta/android/contributed-vectors/actor_detector.png"
   inkscape:export-xdpi="96"
   inkscape:export-ydpi="96"><metadata
   id="metadata27"><rdf:RDF><cc:Work
       rdf:about=""><dc:format>image/svg+xml</dc:format><dc:type
         rdf:resource="http://purl.org/dc/dcmitype/StillImage" /></cc:Work></rdf:RDF></metadata><defs
   id="defs25" /><sodipodi:namedview
   pagecolor="#ffffff"
   bordercolor="#666666"
   borderopacity="1"
   objecttolerance="10"
   gridtolerance="10"
   guidetolerance="10"
   inkscape:pageopacity="0"
   inkscape:pageshadow="2"
   inkscape:window-width="1884"
   inkscape:window-height="1052"
   id="namedview23"
   showgrid="false"
   inkscape:zoom="3.3697917"
   inkscape:cx="96"
   inkscape:cy="96"
   inkscape:window-x="36"
   inkscape:window-y="0"
   inkscape:window-maximized="1"
   inkscape:current-layer="svg21" />
    <g
   transform="matrix(0.99346405,0,0,0.99346405,8.5751636,8.5751636)"
   id="g4"
   style="fill:#56595b;fill-opacity:1">
            <path
   d="m 164.5,21.5 c 0,-5.519 -4.481,-10 -10,-10 h -133 c -5.519,0 -10,4.481 -10,10 v 133 c 0,5.519 4.481,10 10,10 h 133 c 5.519,0 10,-4.481 10,-10 z"
   style="fill:#56595b;fill-opacity:1"
   id="path2" />
        </g><g
   transform="matrix(1.020983,0,0,1.020983,-21.719231,-12.292549)"
   id="g8">
            <path
   d="m 115.3,47.363 18.134,36.745 40.551,5.893 -29.343,28.602 6.927,40.386 L 115.3,139.921 79.03,158.989 85.957,118.603 56.614,90.001 97.165,84.108 Z"
   style="fill:#f9de81"
   id="path6" />
        </g><g
   transform="matrix(0.99346405,0,0,0.99346405,1.1191474,1.0234817)"
   id="g12"
   style="fill:#56595b;fill-opacity:1">
            <path
   d="m 95.505,101.713 c 1.057,-0.012 3.757,-0.309 7.599,-2.628 5.024,-3.031 13.33,12.144 11.484,14.502 -1.817,2.321 -8.787,9.908 -19.083,9.656 -10.296,0.252 -17.266,-7.335 -19.083,-9.656 -1.845,-2.358 6.46,-17.533 11.484,-14.502 3.842,2.319 6.542,2.616 7.599,2.628 z"
   style="fill:#56595b;fill-opacity:1"
   id="path10" />
        </g><g
   transform="matrix(0.99346405,0,0,0.99346405,0.607767,0.280314)"
   id="g16">
            <circle
   cx="96.019997"
   cy="95.900002"
   r="2.1570001"
   style="fill:#4a4a4a"
   id="circle14" />
        </g><path
   d="m 91.451922,77.924915 c 0.326849,-0.792784 1.003398,-2.469752 4.220235,-2.555189 2.15383,-0.05762 4.128836,0.819607 4.850093,3.005228 0.33182,1.005386 0.11524,2.42902 -0.697413,3.69966 -1.151425,1.799164 -4.124863,2.596915 -4.158641,4.650406 -0.02881,1.690875 0.0159,1.131555 -0.03378,2.735006"
   style="fill:none;stroke:#56595b;stroke-width:2.31477px;stroke-opacity:1"
   id="path18" />
</svg>

<?xml version="1.0" encoding="UTF-8" standalone="no"?>
<!DOCTYPE svg PUBLIC "-//W3C//DTD SVG 1.1//EN" "http://www.w3.org/Graphics/SVG/1.1/DTD/svg11.dtd">
<svg width="100%" height="100%" viewBox="0 0 192 192" version="1.1" xmlns="http://www.w3.org/2000/svg" xmlns:xlink="http://www.w3.org/1999/xlink" xml:space="preserve" xmlns:serif="http://www.serif.com/" style="fill-rule:evenodd;clip-rule:evenodd;stroke-linecap:round;stroke-linejoin:round;stroke-miterlimit:1.5;">
    <g id="Layer2">
        <g transform="matrix(1,0,0,1,8,8)">
            <path d="M164.5,21.5C164.5,15.981 160.019,11.5 154.5,11.5L21.5,11.5C15.981,11.5 11.5,15.981 11.5,21.5L11.5,154.5C11.5,160.019 15.981,164.5 21.5,164.5L154.5,164.5C160.019,164.5 164.5,160.019 164.5,154.5L164.5,21.5Z" style="fill:rgb(74,74,74);"/>
        </g>
        <g transform="matrix(1.0277,0,0,1.0277,-22.4937,-13.005)">
            <path d="M115.3,47.363L133.434,84.108L173.985,90.001L144.642,118.603L151.569,158.989L115.3,139.921L79.03,158.989L85.957,118.603L56.614,90.001L97.165,84.108L115.3,47.363Z" style="fill:rgb(249,222,129);"/>
        </g>
        <g transform="matrix(1,0,0,1,0.494931,0.398636)">
            <path d="M95.505,101.713C96.562,101.701 99.262,101.404 103.104,99.085C108.128,96.054 116.434,111.229 114.588,113.587C112.771,115.908 105.801,123.495 95.505,123.243C85.209,123.495 78.239,115.908 76.422,113.587C74.577,111.229 82.882,96.054 87.906,99.085C91.748,101.404 94.448,101.701 95.505,101.713Z" style="fill:rgb(74,74,74);"/>
        </g>
        <g transform="matrix(1,0,0,1,-0.0198137,-0.349421)">
            <circle cx="96.02" cy="95.9" r="2.157" style="fill:rgb(74,74,74);"/>
        </g>
        <path d="M91.422,77.806C91.751,77.008 92.432,75.32 95.67,75.234C97.838,75.176 99.826,76.059 100.552,78.259C100.886,79.271 100.668,80.704 99.85,81.983C98.691,83.794 95.698,84.597 95.664,86.664C95.635,88.366 95.68,87.803 95.63,89.417" style="fill:none;stroke:rgb(74,74,74);stroke-width:2.33px;"/>
    </g>
</svg>
